X: 08104
T: SOUR MILK FOR THE TEA
C: Bob McQuillen 18 Oct 90
B: Bob's Note Book 8 #104
%R: jig
Z: 2021 John Chambers <jc:trillian.mit.edu>
M: 6/8
L: 1/8
K: G
D \
| GBe dBG | AGA B2G | EGA GDG | BdB AFD |\
| GBe dBG | AGA B2G | EGE DGB | AGF G2 :|
|: D \
| E2E EFG | AGE D2D | ECE DGB | dBG ABc |\
| dBd ece | dBd g2d | geg dBA | BGG G2 :|
%%begintext align
%% Well, that's what Sarah Bauhan
%% got the last time she was here.
%% Hasn't been back since!! (just
%% kidding!)
%%endtext

%%sep 1 1 500

%%sep 1 1 500

